X: 140
T:The Highest Hill In Sligo
R:Reel
C:Ed Reavy
Z:alf.
M:4/4
L:1/8
K:D
AF|:FdAF G2 EG|FEFD CDEG|FDFA dfaf|gece dcBA|
FdAF ~G2 EG|~F3A GFED|FAdf ecdB|[1 AFGE FDDE:|[2 AFGE FD D2||
fgaf defa|gfga bgeg|fgaf defa|gbeg ed d2|
fg (3agf bagf|gfec dcAG|FAdf ecdB|[1 AFGE FD D2:|[2AFGE FDDE||
